X: 1
T: Cupid the Ploughboy Version 1 of 3
S: Sung by Mr. Jim Jillson, Askham Bryan, Yorks, VII. 07
F: http://folkopedia.efdss.org/images/e/e9/GB-6a-59.pdf
Z: 2010 John Chambers <jc:trillian.mit.edu>
M: 6/4
L: 1/4
K: Gm
D2 |\
G2G G2A | B2A B2D | G2G G2A | (B3 A2)D | G2G ABc | d2d d2G | ABc AGF | G3- G2f |
f2d dcB | c3  d2c | B2G G2A | B3-  B2D | G2G ABc | d3  d2G | ABc AGF | G3- G2 |]
